X:1
T:Soon!
T:Soon!
T:Ormand Jones
T:Ormand Jones, 2001
T:Copyright © 2001, Ormand Jones. All rights reserved. Courtesy of the Cyber Hymnal™
C:Ormand Jones
Z:Copyright © 2001, Ormand Jones. All rights reserved.
Z:Courtesy of the Cyber Hymnal™
%%score ( 1 2 ) ( 3 4 )
L:1/8
Q:1/4=96
M:4/4
K:F
V:1 treble 
V:2 treble 
V:3 bass 
V:4 bass 
V:1
"^Solemnly" [A,A]2 | [A,D]2 [_DF]2 [=DA]2 (GA) | [FB]2 [DA]2 [DG]2 (FE) | [A,D]2 (AG) [DF]2 [DG]2 | %4
w: 1.~To|You, O Lord, we *|lift our voice; We *|call from~this * world of|
w: 2.~The|years have fled, the *|a- ges flown And *|still we * wait and|
w: 3.~Your|chil- dren, Lord, we *|still re- main, And *|long to * be with|
 ([EA-]4 [DA]2) [DF]2 | [=B,E]2 [DG]2 [DF]2 [_DE]2 | [G,D]2 (GA) [DB]2 [Ec]2 | %7
w: pain. * You|left us with Your|bles- sing, * Lord, And|
w: pray. * Your|prom- ise, Lord, our|on- ly * hope, Your|
w: You. * Re-|ward Your child- ren's|pa- tience, * Lord: Come|
 [Fd]2 AG [DF]2 [DG]2 | [^CA]6 [DA]2 | [DB]2 AG [DF]2 [=CE]2 | [A,D]6 |] %11
w: prom- ised to come a-|gain. You|prom- ised to come a-|gain.|
w: bles- sing our on- ly|stay. Your|bles- sing our on- ly|stay.|
w: back for Your peo- ple|soon! Come|back for Your peo- ple|soon!|
V:2
 x2 | x6 D2 | x6 _D2 | x2 D2 x4 | x8 | x8 | x2 B,2 x4 | x2 D2 x4 | x8 | x2 ^C2 x4 | x6 |] %11
V:3
 A,2 | [D,F,]2 [_D,A,]2 [C,F,]2 [=B,,F,]2 | [B,,G,]2 [A,,G,]2 [G,,B,]2 [A,,A,]2 | %3
 [D,F,]2 [C,F,]2 [G,B,]2 [E,B,]2 | ([^C,A,]4 [D,F,]2) [D,A,]2 | %5
 [E,_A,]2 [B,,E,]2 [D,=A,]2 [E,A,]2 | [B,,F,]2 [G,,F,]2 [E,G,]2 [A,,G,]2 | %7
 [D,A,]2 [C,F,]2 [B,,G,]2 [G,,B,]2 | [A,,E,]6 [D,F,]2 | [G,,G,]2 [A,,E,]2 [G,,B,]2 [A,,G,]2 | %10
 [D,F,]6 |] %11
V:4
 A,2 | x8 | x8 | x8 | x8 | x8 | x8 | x8 | x8 | x8 | x6 |] %11

